modules/themify-icons/icons/layout.svg

<?xml version="1.0" encoding="utf-8"?>
<!-- Generated by IcoMoon.io -->
<!DOCTYPE svg PUBLIC "-//W3C//DTD SVG 1.1//EN" "http://www.w3.org/Graphics/SVG/1.1/DTD/svg11.dtd">
<svg version="1.1" xmlns="http://www.w3.org/2000/svg" xmlns:xlink="http://www.w3.org/1999/xlink" width="17" height="17" viewBox="0 0 17 17">
<g>
</g>
	<path d="M0 0v17h17v-17h-17zM1 6h9v10h-9v-10zM16 16h-5v-10h5v10zM1 5v-4h15v4h-15z" fill="#000000" />
</svg>

<svg xmlns="http://www.w3.org/2000/svg" width="17" height="17"><path d="M0 0v17h17V0H0zm1 6h9v10H1V6zm15 10h-5V6h5v10zM1 5V1h15v4H1z"/></svg>
